X:1
T:Title
%%score { ( 1 3 ) | ( 2 4 ) }
L:1/8
M:4/4
K:Ab
V:1 treble nm="Grand Piano"
V:3 treble 
V:2 bass 
V:4 bass 
V:1
 z4 z2[Q:1/4=100] [CE]2 | [Ec]3 [Ec] [FB][A,FA][A,DF][DFA] | [CEA]2 [DF]2 [CE]3 [CE] | %3
 EBBB B[EG][EA]B | c2 e2 [Ge]3 d | cc_cc =c c2 [EA] | [FB][FA][FA][DF] [CE]2 [EA][FB] | %7
 c3 A B2 B2 |[M:3/4] [CA]6 |[M:1/4] cd |[M:4/4] e4 z4 | e6 A[AB] | [EAc]3 [FAd] [EAc]2 [CEA]2 | %13
 z4 z2 .c2 | ec_cc =c3 [EA] | [FB][FA][FA][DF] [CE]2 [EA][FB] | c3 A B2 B2 |[M:3/4] [CEA]6 |] %18
V:2
 z4 z2 [A,,A,]2 | [A,,A,]3 [A,,A,] [D,A,]D,D,D, | A,,2 [A,,A,]2 [A,,A,]3 [A,,A,] | %3
 [E,G,B,][E,G,D][E,G,D][E,G,D] [E,G,D][D,B,][C,A,][E,G,E] | %4
 [A,E]2 [A,CA]2[K:bass] [E,B,]3 [E,G,E] | [A,E][A,E][A,=D][A,D] [A,E] [A,E]2 [C,A,] | %6
 [D,A,][D,A,][D,A,][D,A,] [A,,A,]2 [C,A,][D,A,] | [E,A,E]3 [E,A,C] [E,G,D]2 [E,G,D]2 | %8
[M:3/4] [A,,E,A,]6 |[M:1/4][K:treble] [A,A][B,A] |[M:4/4] [CA]3 [A,DA] [A,CA]2 [A,EA]2 | %11
 [A,CA]6 CD | A,A,A,A, A,2 A,2 | E,6 A,B, | [A,CA][A,E][A,=D][A,D] [A,E]3[K:bass] [C,A,] | %15
 [D,A,][D,A,][D,A,][D,A,] [A,,A,]2 [C,A,][D,A,] | [E,A,E]3 [E,CE] [E,DE]2 [E,DE]2 |[M:3/4] A,,6 |] %18
V:3
 x8 | x8 | x8 | x8 | x8 | x8 | x8 | x8 |[M:3/4] x6 |[M:1/4] x2 |[M:4/4] z A,A,f e2 c2 | x8 | x8 | %13
 [EGB]6 A-[Ad] | x8 | x8 | x8 |[M:3/4] x6 |] %18
V:4
 x8 | x8 | x8 | x8 | x4[K:bass] x4 | x8 | x8 | x8 |[M:3/4] x6 |[M:1/4][K:treble] x2 | %10
[M:4/4] .A,2 z2 z4 | x8 | x8 | x8 | x7[K:bass] x | x8 | x8 |[M:3/4] x6 |] %18

